img/lmc.svg

<svg version="1.1" id="Capa_1" xmlns="http://www.w3.org/2000/svg" xmlns:xlink="http://www.w3.org/1999/xlink" x="0px" y="0px"
	 viewBox="0 0 425 425">
<g fill="#e6ffff">
	<path d="M230.396,389.574c-35.522,0-69.865-14.233-95.169-39.253c-8.437,3.633-17.598,5.544-26.832,5.544
		c-37.351,0-67.735-30.385-67.735-67.744c0-3.991,0.382-8.039,1.13-12.087C15.517,256.599,0,226.052,0,193.212
		c0-51.649,38.985-95.495,89.707-102.087c12.705-33.238,44.35-55.209,80.367-55.209c31.433,0,60.176,17.176,75.254,44.366
		c10.86-3.755,22.183-5.657,33.782-5.657c57.144,0,103.631,46.479,103.631,103.615c0,2.398-0.106,4.837-0.317,7.421
		c25.67,10.047,43.065,35.05,43.065,63.029c0,39.667-34.53,71.45-74.726,67.378C327.63,360.913,281.037,389.574,230.396,389.574z
		 M138.641,330.26l4.308,4.658c22.89,24.76,53.949,38.399,87.447,38.399c46.365,0,88.87-27.304,108.289-69.572l2.666-5.828
		l6.283,1.236c3.381,0.667,6.779,1.008,10.104,1.008c28.385,0,51.486-23.101,51.486-51.486c0-23.044-15.534-43.431-37.765-49.568
		l-6.861-1.886l0.967-7.047c0.618-4.56,0.91-8.348,0.91-11.949c0-48.17-39.196-87.358-87.374-87.358
		c-11.957,0-23.573,2.398-34.546,7.121l-7.397,3.186l-3.251-7.364c-11.177-25.296-36.237-41.651-63.842-41.651
		c-30.694,0-57.469,19.663-66.63,48.934l-1.642,5.251l-5.487,0.423c-44.886,3.447-80.05,41.415-80.05,86.431
		c0,29.263,14.631,56.364,39.139,72.507l4.91,3.235l-1.544,5.674c-1.227,4.544-1.853,9.072-1.853,13.493
		c0,28.385,23.093,51.486,51.478,51.486c8.616,0,17.143-2.178,24.678-6.292L138.641,330.26z"/>
</g>
</svg>

<svg version="1.1" id="lmc" xmlns="http://www.w3.org/2000/svg" xmlns:xlink="http://www.w3.org/1999/xlink" x="0px" y="0px"
width="425px" height="425px" viewBox="0 0 425 425">
<g fill="#e6ffff">
<path d="M230.396+389.574C194.874+389.574+160.531+375.341+135.227+350.321C126.79+353.954+117.629+355.865+108.395+355.865C71.044+355.865+40.66+325.48+40.66+288.121C40.66+284.13+41.042+280.082+41.79+276.034C15.517+256.599+0+226.052+0+193.212C0+141.563+38.985+97.717+89.707+91.125C102.412+57.887+134.057+35.916+170.074+35.916C201.507+35.916+230.25+53.092+245.328+80.282C256.188+76.527+267.511+74.625+279.11+74.625C336.254+74.625+382.741+121.104+382.741+178.24C382.741+180.638+382.635+183.077+382.424+185.661C408.094+195.708+425.489+220.711+425.489+248.69C425.489+288.357+390.959+320.14+350.763+316.068C327.63+360.913+281.037+389.574+230.396+389.574Z"/>
</g>
</svg>
